img/icons/I-engine.svg

<?xml version="1.0" encoding="UTF-8" standalone="no"?>
<svg
   xmlns:dc="http://purl.org/dc/elements/1.1/"
   xmlns:cc="http://creativecommons.org/ns#"
   xmlns:rdf="http://www.w3.org/1999/02/22-rdf-syntax-ns#"
   xmlns:svg="http://www.w3.org/2000/svg"
   xmlns="http://www.w3.org/2000/svg"
   xmlns:sodipodi="http://sodipodi.sourceforge.net/DTD/sodipodi-0.dtd"
   xmlns:inkscape="http://www.inkscape.org/namespaces/inkscape"
   width="450"
   height="1000"
   version="1.1"
   id="svg18"
   sodipodi:docname="I-engine.svg"
   inkscape:version="0.92.1 r15371">
  <metadata
     id="metadata24">
    <rdf:RDF>
      <cc:Work
         rdf:about="">
        <dc:format>image/svg+xml</dc:format>
        <dc:type
           rdf:resource="http://purl.org/dc/dcmitype/StillImage" />
        <dc:title></dc:title>
      </cc:Work>
    </rdf:RDF>
  </metadata>
  <defs
     id="defs22" />
  <sodipodi:namedview
     pagecolor="#ffffff"
     bordercolor="#666666"
     borderopacity="1"
     objecttolerance="10"
     gridtolerance="10"
     guidetolerance="10"
     inkscape:pageopacity="0"
     inkscape:pageshadow="2"
     inkscape:window-width="640"
     inkscape:window-height="480"
     id="namedview20"
     showgrid="false"
     inkscape:zoom="0.236"
     inkscape:cx="225"
     inkscape:cy="500"
     inkscape:window-x="294"
     inkscape:window-y="98"
     inkscape:window-maximized="0"
     inkscape:current-layer="svg18" />
  <mask
     id="_1">
    <g
       id="g14">
      <path
         d="M 0,0 450,0 450,1000 0,1000 0,0 Z"
         style="stroke:none; fill:white"
         id="path10" />
      <path
         d="M 329.979166,789.020777 C 329.979166,847.010672 282.969028,894.020796 224.979159,894.020796 C 166.989264,894.020796 119.979152,847.010672 119.979152,789.020777 C 119.979152,731.030941 166.989264,684.020817 224.979159,684.020817 C 282.969028,684.020817 329.979166,731.030941 329.979166,789.020777 Z M 256.979147,203.020811 C 256.979147,220.693886 242.652261,235.020816 224.979159,235.020816 C 207.306057,235.020816 192.979145,220.693886 192.979145,203.020811 C 192.979145,185.347676 207.306057,171.020806 224.979159,171.020806 C 242.652261,171.020806 256.979147,185.347676 256.979147,203.020811 Z"
         style="stroke:none; fill:black"
         fill-rule="nonzero"
         id="path12" />
    </g>
  </mask>
  <path
     d="M 195.979142,290.020823 C 195.979142,290.020823 190.979156,557.020783 190.979156,557.020783 C 190.979156,557.020783 193.979153,589.020789 161.979166,634.020805 C 129.979151,679.020822 101.979142,686.020792 101.979142,686.020792 C 101.979142,686.020792 67.979166,686.020792 67.979166,686.020792 C 67.979166,686.020792 67.979166,906.020820 67.979166,906.020820 C 67.979166,906.020820 119.979152,906.020820 119.979152,906.020820 C 119.979152,906.020820 119.979152,896.020830 119.979152,896.020830 C 119.979152,896.020830 123.979157,894.020796 136.979154,902.020812 C 149.979150,910.020828 163.979155,923.020780 188.979140,930.020809 C 213.979152,937.020779 224.979159,934.020817 224.979159,934.020817 C 224.979159,934.020817 235.979167,937.020779 260.979152,930.020809 C 285.979164,923.020780 299.979141,910.020828 312.979165,902.020812 C 325.979161,894.020796 329.979166,896.020830 329.979166,896.020830 C 329.979166,896.020830 329.979166,906.020820 329.979166,906.020820 C 329.979166,906.020820 381.979153,906.020820 381.979153,906.020820 C 381.979153,906.020820 381.979153,686.020792 381.979153,686.020792 C 381.979153,686.020792 347.979149,686.020792 347.979149,686.020792 C 347.979149,686.020792 319.979140,679.020822 287.979153,634.020805 C 255.979165,589.020789 258.979163,557.020783 258.979163,557.020783 C 258.979163,557.020783 253.979149,290.020823 253.979149,290.020823 C 253.979149,290.020823 240.979153,288.020790 224.979159,288.020790 C 208.979166,288.020790 195.979142,290.020823 195.979142,290.020823 Z M 59.979156,101.020813 C 59.979156,101.020813 59.979156,69.020808 59.979156,69.020808 C 59.979156,69.020808 105.979148,54.020822 224.979159,54.020822 C 343.979144,54.020822 389.979163,69.020808 389.979163,69.020808 C 389.979163,69.020808 389.979163,101.020813 389.979163,101.020813 C 389.979163,101.020813 343.979144,86.020827 224.979159,86.020827 C 105.979148,86.020827 59.979156,101.020813 59.979156,101.020813 Z M 59.979156,131.020784 C 59.979156,131.020784 59.979156,116.020799 59.979156,116.020799 C 59.979156,116.020799 105.979148,101.020813 224.979159,101.020813 C 343.979144,101.020813 389.979163,116.020799 389.979163,116.020799 C 389.979163,116.020799 389.979163,131.020784 389.979163,131.020784 C 389.979163,131.020784 343.979144,116.020799 224.979159,116.020799 C 105.979148,116.020799 59.979156,131.020784 59.979156,131.020784 Z M 124.979165,280.020833 C 101.979142,284.020782 83.979160,289.020777 79.979154,305.020809 C 75.979149,321.020782 73.979160,326.020777 73.979160,326.020777 C 73.979160,326.020777 59.979156,326.020777 59.979156,326.020777 C 59.979156,326.020777 59.979156,146.020830 59.979156,146.020830 C 59.979156,146.020830 105.979148,131.020784 224.979159,131.020784 C 343.979144,131.020784 389.979163,146.020830 389.979163,146.020830 C 389.979163,146.020830 389.979163,326.020777 389.979163,326.020777 C 389.979163,326.020777 375.979158,326.020777 375.979158,326.020777 C 375.979158,326.020777 373.979142,321.020782 369.979164,305.020809 C 365.979159,289.020777 347.979149,284.020782 324.979153,280.020833 C 301.979157,276.020825 270.979151,272.020817 224.979159,272.020817 C 178.979141,272.020817 147.979161,276.020825 124.979165,280.020833 Z"
     fill-rule="nonzero"
     mask="url(#_1)"
     style="stroke: none; fill: rgb(55, 55, 55)"
     inkscape:label="Piston copy 7"
     id="Piston copy 7" />
</svg>

<?xml version="1.0" encoding="UTF-8" standalone="no"?>
<svg
   xmlns:dc="http://purl.org/dc/elements/1.1/"
   xmlns:cc="http://creativecommons.org/ns#"
   xmlns:rdf="http://www.w3.org/1999/02/22-rdf-syntax-ns#"
   xmlns:svg="http://www.w3.org/2000/svg"
   xmlns="http://www.w3.org/2000/svg"
   xmlns:sodipodi="http://sodipodi.sourceforge.net/DTD/sodipodi-0.dtd"
   xmlns:inkscape="http://www.inkscape.org/namespaces/inkscape"
   width="1000"
   height="1000"
   version="1.1"
   id="svg18"
   sodipodi:docname="I-engine.svg"
   inkscape:version="0.92.2 (5c3e80d, 2017-08-06)">
  <metadata
     id="metadata24">
    <rdf:RDF>
      <cc:Work
         rdf:about="">
        <dc:format>image/svg+xml</dc:format>
        <dc:type
           rdf:resource="http://purl.org/dc/dcmitype/StillImage" />
        <dc:title></dc:title>
      </cc:Work>
    </rdf:RDF>
  </metadata>
  <defs
     id="defs22" />
  <sodipodi:namedview
     pagecolor="#ffffff"
     bordercolor="#666666"
     borderopacity="1"
     objecttolerance="10"
     gridtolerance="10"
     guidetolerance="10"
     inkscape:pageopacity="0"
     inkscape:pageshadow="2"
     inkscape:window-width="1920"
     inkscape:window-height="1027"
     id="namedview20"
     showgrid="false"
     inkscape:zoom="0.236"
     inkscape:cx="225"
     inkscape:cy="500"
     inkscape:window-x="-8"
     inkscape:window-y="-8"
     inkscape:window-maximized="1"
     inkscape:current-layer="svg18" />
  <mask
     id="_1">
    <g
       id="g14">
      <path
         d="M 0,0 H 450 V 1000 H 0 Z"
         style="fill:#ffffff;stroke:none"
         id="path10"
         inkscape:connector-curvature="0" />
      <path
         d="m 329.97917,789.02078 c 0,57.98989 -47.01014,105.00002 -105.00001,105.00002 -57.9899,0 -105.00001,-47.01013 -105.00001,-105.00002 0,-57.98984 47.01011,-104.99996 105.00001,-104.99996 57.98987,0 105.00001,47.01012 105.00001,104.99996 z M 256.97915,203.02081 c 0,17.67308 -14.32689,32.00001 -31.99999,32.00001 -17.6731,0 -32.00002,-14.32693 -32.00002,-32.00001 0,-17.67313 14.32692,-32 32.00002,-32 17.6731,0 31.99999,14.32687 31.99999,32 z"
         style="fill:#000000;fill-rule:nonzero;stroke:none"
         id="path12"
         inkscape:connector-curvature="0" />
    </g>
  </mask>
  <g
     id="g3770"
     transform="matrix(0.81,0,0,0.81,317.76688,99.584324)">
    <path
       inkscape:connector-curvature="0"
       id="Piston copy 7"
       inkscape:label="Piston copy 7"
       style="fill:#373737;fill-rule:nonzero;stroke:none"
       mask="url(#_1)"
       d="m 195.97914,290.02082 c 0,0 -4.99998,266.99996 -4.99998,266.99996 0,0 2.99999,32.00001 -28.99999,77.00002 -32.00002,45.00002 -60.00003,51.99999 -60.00003,51.99999 0,0 -33.999974,0 -33.999974,0 0,0 0,220.00003 0,220.00003 0,0 51.999984,0 51.999984,0 0,0 0,-9.99999 0,-9.99999 0,0 4.00001,-2.00003 17,5.99998 13,8.00002 27,20.99997 51.99999,28 25.00001,6.99997 36.00002,4.00001 36.00002,4.00001 0,0 11.00001,2.99996 35.99999,-4.00001 25.00001,-7.00003 38.99999,-19.99998 52.00002,-28 12.99999,-8.00001 17,-5.99998 17,-5.99998 0,0 0,9.99999 0,9.99999 0,0 51.99998,0 51.99998,0 0,0 0,-220.00003 0,-220.00003 0,0 -34,0 -34,0 0,0 -28.00001,-6.99997 -60,-51.99999 -31.99999,-45.00001 -28.99999,-77.00002 -28.99999,-77.00002 0,0 -5.00001,-266.99996 -5.00001,-266.99996 0,0 -13,-2.00003 -28.99999,-2.00003 -15.99999,0 -29.00002,2.00003 -29.00002,2.00003 z M 59.979156,101.02081 c 0,0 0,-32.000002 0,-32.000002 0,0 45.999994,-14.999986 165.000004,-14.999986 118.99998,0 165,14.999986 165,14.999986 0,0 0,32.000002 0,32.000002 0,0 -46.00002,-14.999983 -165,-14.999983 -119.00001,0 -165.000004,14.999983 -165.000004,14.999983 z m 0,29.99997 c 0,0 0,-14.99998 0,-14.99998 0,0 45.999994,-14.99999 165.000004,-14.99999 118.99998,0 165,14.99999 165,14.99999 0,0 0,14.99998 0,14.99998 0,0 -46.00002,-14.99998 -165,-14.99998 -119.00001,0 -165.000004,14.99998 -165.000004,14.99998 z m 65.000004,149.00005 c -23.00002,3.99995 -41,8.99995 -45.000006,24.99998 -4.000005,15.99997 -5.999994,20.99997 -5.999994,20.99997 0,0 -14.000004,0 -14.000004,0 0,0 0,-179.99995 0,-179.99995 0,0 45.999994,-15.00005 165.000004,-15.00005 118.99998,0 165,15.00005 165,15.00005 0,0 0,179.99995 0,179.99995 0,0 -14,0 -14,0 0,0 -2.00002,-5 -6,-20.99997 -4,-16.00003 -22.00001,-21.00003 -45.00001,-24.99998 -22.99999,-4.00001 -54,-8.00001 -99.99999,-8.00001 -46.00002,0 -77,4 -100,8.00001 z" />
  </g>
</svg>
